X: 3176
T: I'LL BREAK YOUR HEAD FOR YOU
Q: "Reel."
R: Reel.
%R: reel
B: James Kerr "Merry Melodies" v.3 p.21 #176
Z: 2016 John Chambers <jc:trillian.mit.edu>
M: C
L: 1/8
K: Gm
ue |\
d2de d2cB | B2BB c2cc |\
d2de d2cB | AG^FA G/G/G G ::\
A |\
B/B/B (fg) fddc | B/B/B (fB) d/d/d d2 |\
B/B/B (fB) d/d/d (db) | gBfB G/G/G G :|

%%sep 1 1 500
%%sep 1 1 500

